img/icons/poweroff.svg

<svg fill="none" height="24" viewBox="0 0 24 24" width="24" xmlns="http://www.w3.org/2000/svg"><path d="m16.5371 2.92734c-.0287-.01445-.0606-.0213-.0927-.01987-.0321.00142-.0633.01107-.0906.02801s-.0497.0406-.0653.06873c-.0155.02812-.0235.05976-.0233.09188v1.50469c0 .12891.068.24844.1758.31875.5285.33267 1.0176.72423 1.4578 1.16719.7664.76875 1.3688 1.66172 1.7883 2.65547.4339 1.02874.6563 2.13431.6539 3.25081 0 1.1273-.2203 2.2218-.6539 3.2508-.4191.9923-1.0263 1.894-1.7883 2.6554-.7594.7639-1.6606 1.3721-2.6531 1.7906-1.0266.436-2.1211.6563-3.2461.6563s-2.21953-.2203-3.2461-.6563c-.99248-.4185-1.89372-1.0267-2.65312-1.7906-.76195-.7614-1.36923-1.6631-1.78828-2.6554-.43387-1.0288-.65626-2.1343-.65391-3.2508 0-1.1274.22031-2.22191.65391-3.25081.41953-.99375 1.02187-1.88672 1.78828-2.65547.44531-.44531.93281-.83438 1.45781-1.16719.11016-.06797.17578-.18984.17578-.31875v-1.50703c0-.14063-.14765-.22969-.27187-.16875-3.27891 1.65-5.54063 5.02734-5.5875 8.9414-.06563 5.5969 4.51172 10.2469 10.1062 10.2586 5.6016.0117 10.1438-4.5305 10.1438-10.1344 0-3.9656-2.2734-7.39919-5.5875-9.06326zm-5.2875 10.19766h1.5c.1031 0 .1875-.0844.1875-.1875v-10.875c0-.10313-.0844-.1875-.1875-.1875h-1.5c-.1031 0-.1875.08437-.1875.1875v10.875c0 .1031.0844.1875.1875.1875z" fill="#000"/></svg>

<svg width="24" height="24" viewBox="0 0 24 24" fill="none" xmlns="http://www.w3.org/2000/svg">
<path d="M16.5371 2.92734C16.5084 2.91289 16.4765 2.90604 16.4444 2.90747C16.4123 2.90889 16.3811 2.91854 16.3538 2.93548C16.3265 2.95242 16.3041 2.97608 16.2885 3.00421C16.273 3.03233 16.265 3.06397 16.2652 3.09609V4.60078C16.2652 4.72969 16.3332 4.84922 16.441 4.91953C16.9695 5.2522 17.4586 5.64376 17.8988 6.08672C18.6652 6.85547 19.2676 7.74844 19.6871 8.74219C20.121 9.77093 20.3434 10.8765 20.341 11.993C20.341 13.1203 20.1207 14.2148 19.6871 15.2438C19.268 16.2361 18.6608 17.1378 17.8988 17.8992C17.1394 18.6631 16.2382 19.2713 15.2457 19.6898C14.2191 20.1258 13.1246 20.3461 11.9996 20.3461C10.8746 20.3461 9.78007 20.1258 8.7535 19.6898C7.76102 19.2713 6.85978 18.6631 6.10038 17.8992C5.33843 17.1378 4.73115 16.2361 4.3121 15.2438C3.87823 14.215 3.65584 13.1095 3.65819 11.993C3.65819 10.8656 3.8785 9.77109 4.3121 8.74219C4.73163 7.74844 5.33397 6.85547 6.10038 6.08672C6.54569 5.64141 7.03319 5.25234 7.55819 4.91953C7.66835 4.85156 7.73397 4.72969 7.73397 4.60078V3.09375C7.73397 2.95312 7.58632 2.86406 7.4621 2.925C4.18319 4.575 1.92147 7.95234 1.8746 11.8664C1.80897 17.4633 6.38632 22.1133 11.9808 22.125C17.5824 22.1367 22.1246 17.5945 22.1246 11.9906C22.1246 8.025 19.8512 4.59141 16.5371 2.92734ZM11.2496 13.125H12.7496C12.8527 13.125 12.9371 13.0406 12.9371 12.9375V2.0625C12.9371 1.95937 12.8527 1.875 12.7496 1.875H11.2496C11.1465 1.875 11.0621 1.95937 11.0621 2.0625V12.9375C11.0621 13.0406 11.1465 13.125 11.2496 13.125Z" fill="black"/>
</svg>
